svg/toolbarSharp.svg

<svg width="284" height="284" viewBox="0 0 284 284" xmlns="http://www.w3.org/2000/svg">
    <path d="M181.067 107.798l9.516-40.326a9.329 9.329 0 0 0-18.159-4.284l-10.526 44.61h-9.826c-.804 6.144-.8 12.461-1.606 18.657h7.03l-7.173 30.398h-25.262l7.173-30.398h18.232c.806-6.196.802-12.513 1.606-18.657h-15.436l9.516-40.326a9.328 9.328 0 0 0-6.937-11.22 9.327 9.327 0 0 0-11.221 6.936l-10.526 44.61h-28.99a9.33 9.33 0 0 0 0 18.657h24.588l-7.173 30.398H76.329a9.33 9.33 0 0 0 0 18.657h25.162l-9.813 41.587c-1.184 5.013 1.922 10.038 6.936 11.221.721.17 1.441.251 2.151.251 4.228 0 8.057-2.894 9.07-7.188l10.824-45.87h25.261l-9.813 41.585c-1.183 5.014 1.923 10.04 6.936 11.222.721.17 1.442.251 2.151.251 4.228 0 8.058-2.894 9.072-7.187l10.824-45.872h31.278a9.328 9.328 0 0 0 9.328-9.328c0-5.152-4.176-9.329-9.328-9.329h-26.876l7.173-30.398h31.851c5.152 0 9.328-4.177 9.328-9.329a9.328 9.328 0 0 0-9.328-9.328h-27.449z" fill="#1A1918" fill-rule="evenodd"/>
</svg>

<svg width="284" height="284" viewBox="0 0 284 284" fill="none" xmlns="http://www.w3.org/2000/svg">
<path fill-rule="evenodd" clip-rule="evenodd" d="M181.067 107.798L190.583 67.4724C191.766 62.4584 188.66 57.4344 183.647 56.2514C178.63 55.0684 173.608 58.1734 172.424 63.1884L161.898 107.798H152.072C151.268 113.942 151.272 120.259 150.466 126.455H157.496L150.323 156.853H125.061L132.234 126.455H150.466C151.272 120.259 151.268 113.942 152.072 107.798H136.636L146.152 67.4724C147.335 62.4584 144.23 57.4344 139.215 56.2514C134.2 55.0684 129.177 58.1734 127.994 63.1884L117.468 107.798H88.478C83.326 107.798 79.149 111.974 79.149 117.126C79.149 122.278 83.326 126.455 88.478 126.455H113.066L105.893 156.853H76.329C71.177 156.853 67 161.03 67 166.182C67 171.334 71.177 175.51 76.329 175.51H101.491L91.678 217.097C90.494 222.11 93.6 227.135 98.614 228.318C99.335 228.488 100.055 228.569 100.765 228.569C104.993 228.569 108.822 225.675 109.835 221.381L120.659 175.51H145.92L136.107 217.096C134.924 222.11 138.03 227.135 143.043 228.318C143.764 228.488 144.485 228.569 145.194 228.569C149.422 228.569 153.252 225.675 154.266 221.382L165.09 175.51H196.368C201.52 175.51 205.696 171.334 205.696 166.182C205.696 161.03 201.52 156.853 196.368 156.853H169.492L176.665 126.455H208.516C213.668 126.455 217.844 122.278 217.844 117.126C217.844 111.974 213.668 107.798 208.516 107.798H181.067Z" fill="#1A1919"/>
</svg>
